X: 1
T: McLaughlin's Strathspey
C: composed by Alasdair Fraser
%D:2011
R: strathspey
S: Fiddle Hell Online 2022-4-8 handout for Alasdair Fraser strathspey workshop
Z: 2022 John Chambers <jc:trillian.mit.edu>
N: The original has the first 4 bars written twice.
M: 4/4
L: 1/16
K: C
ef | g3c eg3  a3g f2ef | g3c eg3 fa3 d2f2 | eg3  c2B2 A3c  fa3  | ga3 e3d ec3 c2 :|
e2 | E3G c3G  Ac3 F3a  | gc3 g3e ed3 d2e2 | E3G  c3G  Ac3  F2a2 | ga3 e3d ec3 c2 ||
e2 | E3G c2B2 A3c fa3  | ga3 g3e ed3 d2e2 | c2e2 d2f2 e2g2 f2a2 | ga3 e3d ec3 c2 |]
